X:0525
T:Irish Morshaw.
M:6/8
L:1/8
Q:3/8=120
I: :: ::
Z:Jack Campin * www.campin.me.uk * 2009
K:D
A|dff fdf |faa  afa |ad'b ad'b|agf  f2e|
  dff fdf |faa  afa |ad'b agf |fee  e2::
A|efg gag |gag Tg3  |fga  aba |aba Ta3 |
  afg ad'b|afg  ad'b|agf  edc |ded  d2:|
<end>
<start>
